X:635
T:Doctor O'Neill
R:Jig
O:Ireland
S:O'Neill's 701
B:O'Neill's 701
Z:Transcription, minor arr., chords:Mike Long
M:6/8
L:1/8
K:D
A|\
"D"ddd AFD|"Em"E2F G2A|"G"BGB Bcd|"D"AGF "A"E2A|\
"D"ddd AFD|"Em"E2F G2A|"G"BGB Bcd|"D"AFD D2:|
|:A|\
"D"ddd "A"ceA|"D"dfe dcB|"D"AFA "(G)"Bcd|"D"AGF "A"E2A|\
"D"ddd "A"ceA|"D"dfe dcB|"D"AFA "G"Bcd|"D"AFD D2:|
|:g|\
"D"fef afd|ded fed|"G"gbg "D"faf|"A"gee e2g|\
"D"fef afd|ded fed|"G"gbg "D"faf|"A"edc "D"d2:|
|:g|\
"D"fdf "A"ece|"G"dcB "D"AFA|"D"AFd AFd|"D"AGF "A"E2g|\
"D"fdf "A"ece|"G"dcB "D"AFA|"D"AFA "G"Bcd|"D"AFD D2:|
|:E|\
"D"FAF "G"GBG|"D"FAF FED|"D"FAF "G"GBG|"D"AGF "A"E2D|\
"D"FAF "G"GBG|"D"FAF FED|"G"BGB Bcd|"D"AFD D2:|
